X:1
T:Title
%%score ( 1 2 ) { ( 3 5 6 ) | 4 }
L:1/8
M:4/4
K:Ab
V:1 treble nm="Grand Piano, Unnamed-000"
V:2 treble 
V:3 bass nm="Choir Pad, Genevan Psalm CXVIII"
V:5 bass 
V:6 bass 
V:4 bass 
V:1
 [EA]4 [DF]2 [CE]2 | z4 B2 d2 | [Ac]4 [GB]2 [Ge]2 | [Fc]2 [=Ec]2 [FA]2 [Fd]2 | [Ec]4 [EB]4 | %5
w: By~Louis~Bourgeois,~1544 * *|||||
 [CA]8 | [EA]4 [DF]2 [CE]2 | z4 B2 B2 | [Ac]4 [GB]2 [Ge]2 | [Fd]2 [Ec]2 [EB]2 [CA]2 | [FA]4 [EG]4 | %11
w: ||||||
 [EA]8 | z4 z2 d2 | [Ac]2 [GB]2 [FA]2 [EG]2 | E2 z2 z4 | [EA]2 [EA]2 [DG]2 F2 | [EA]4 [EB]4 | %17
w: ||||||
 [Ec]8 | [FA]4 [EA]2 [GB]2 | [Ac]2 [FA]2 [Dd]2 [Ed]2 | c2- [Fc]2 [GB]2 [Ge]2 | %21
w: ||||
 [Fd]2 [Ec]2 [EB]2 A-[DA] | [EA]4 [EG]4 | [CA]8 |] %24
w: |||
V:2
 x8 | [EA]2 [EA]2 F3 G | x8 | x8 | x8 | x8 | x8 | [CA]2 [FA]2 F3 G | x8 | x8 | x8 | x8 | %12
 [Ee]4 [Ae]2 FG | x8 | F2- [DF]2 [CE]2 E2 | x8 | x8 | x8 | x8 | x8 | E2 z2 z4 | z4 z2 .C2 | x8 | %23
 x8 |] %24
V:3
 C4 A,2 A,2 | A,2 C2 B,2 B,2 | C2 D2 E2 B,2 | A,2[K:bass] G,2 F,2 B,2 | B,2 z D, z2 G,2 | A,8 | %6
 C4 A,2 A,2 | A,2 C2 B,2 B,2 | C2 D2 E2 B,2 | A,2[K:bass] A,2 G,2 A,2 | D4 B,4 | C8 | C4 C2 D2 | %13
 D2 D2 C2 C2 | A,4 A,2 G,2 | A,2 C2 B,2 B,2 | C2 z2 z2 G,2 | A,8 | A,4 A,2[K:treble] D2 | %19
 C2 D2 A,2 B,2 | A,4 B,2 C2 | A,2 A,2 G,2 A,2 | B,4 B,4 | A,8 |] %24
V:4
 A,,4 D,2 A,,2 | C,2 A,,2 D,2 B,,2 | E,4 E,2 E,2 | F,2 C,2 D,2 C,2 | .C,4 z4 | A,,8 | %6
 A,,4 D,2 A,,2 | F,2 F,2 D,2 B,,2 | E,4 E,2 E,2 | F,2 z2 E,2 F,2 | D,4 E,4 | A,,8 | A,4 z2 B,2 | %13
 A,2 E,2 F,2 C,2 | D,4 A,,2 E,2 | C,2 A,,2 B,,2 D,2 | C,4 z4 | A,,8 | D,4 C,2 B,,2 | %19
 A,,2 D,2 F,2 G,2 | z4 E,2 C,2 | D,2 z2 E,2 F,2 | E,4 E,4 | A,,8 |] %24
V:5
 x8 | x8 | x8 | x2[K:bass] x6 | z2 A,2 E,4 | x8 | x8 | x8 | x8 | x2[K:bass] x6 | x8 | x8 | x8 | %13
 x8 | x8 | x8 | z2 A,4 z2 | x8 | x6[K:treble] x2 | x8 | x8 | x8 | x8 | x8 |] %24
V:6
 x8 | x8 | x8 | x2[K:bass] x6 | x8 | x8 | x8 | x8 | x8 | x2[K:bass] x6 | x8 | x8 | x8 | x8 | x8 | %15
 x8 | z4 E,4 | x8 | x6[K:treble] x2 | x8 | x8 | x8 | x8 | x8 |] %24

